svg/nature/dandelion_line.svg

<?xml version="1.0" encoding="UTF-8"?>
<svg width="24px" height="24px" viewBox="0 0 24 24" version="1.1" xmlns="http://www.w3.org/2000/svg" xmlns:xlink="http://www.w3.org/1999/xlink">
    <title>dandelion_line</title>
    <g id="Icon" stroke="none" stroke-width="1" fill="none" fill-rule="evenodd">
        <g id="Nature" transform="translate(-288.000000, -2.000000)" fill-rule="nonzero">
            <g id="dandelion_line" transform="translate(288.000000, 2.000000)">
                <path d="M24,0 L24,24 L0,24 L0,0 L24,0 Z M12.5935,23.2578 L12.5819,23.2595 L12.5109,23.295 L12.4919,23.2987 L12.4767,23.295 L12.4057,23.2595 C12.3958,23.2564 12.387,23.259 12.3821,23.2649 L12.378,23.2758 L12.3609,23.7031 L12.3659,23.7235 L12.3769,23.7357 L12.4805,23.8097 L12.4953,23.8136 L12.5071,23.8097 L12.6107,23.7357 L12.6233,23.7197 L12.6267,23.7031 L12.6096,23.2758 C12.6076,23.2657 12.601,23.2593 12.5935,23.2578 Z M12.8584,23.1453 L12.8445,23.1473 L12.6598,23.2397 L12.6499,23.2499 L12.6472,23.2611 L12.6651,23.6906 L12.6699,23.7034 L12.6784,23.7105 L12.8793,23.8032 C12.8914,23.8069 12.9022,23.803 12.9078,23.7952 L12.9118,23.7812 L12.8777,23.1665 C12.8753,23.1546 12.8674,23.147 12.8584,23.1453 Z M12.143,23.1473 C12.1332,23.1424 12.1222,23.1453 12.1156,23.1526 L12.1099,23.1665 L12.0758,23.7812 C12.0751,23.7927 12.0828,23.8019 12.0926,23.8046 L12.1083,23.8032 L12.3092,23.7105 L12.3186,23.7024 L12.3225,23.6906 L12.3404,23.2611 L12.3372,23.2485 L12.3278,23.2397 L12.143,23.1473 Z" id="MingCute"></path>
                <path d="M12,8 C13.1046,8 14,8.89543 14,10 C14,10.1649 13.98,10.3252 13.9424,10.4785 C16.7684,13.5113 18,17.2677 18,21 C18,21.5523 17.5523,22 17,22 C16.4477,22 16,21.5523 16,21 C16,17.7576 14.9512,14.5389 12.5534,11.9225 C12.3776,11.973 12.192,12 12,12 C10.8954,12 10,11.1046 10,10 C10,8.89543 10.8954,8 12,8 Z M12,2 C14.4572,2 16.6564,3.10904 18.1223,4.85028 C19.2935,6.24137 20,8.03948 20,10 C20,11.2251 19.7239,12.3886 19.2296,13.4291 C18.9926,13.9279 18.3961,14.1402 17.8973,13.9033 C17.3984,13.6663 17.1861,13.0698 17.4231,12.5709 C17.7927,11.7929 18,10.9221 18,10 C18,8.52816 17.4713,7.18239 16.5923,6.13836 C15.4902,4.8292 13.8424,4 12,4 C8.68629,4 6,6.68629 6,10 C6,13.3137 8.68629,16 12,16 C12.292,16 12.5786,15.9792 12.8584,15.9392 C13.4051,15.861 13.9117,16.2408 13.9899,16.7875 C14.0681,17.3342 13.6883,17.8408 13.1416,17.919 C12.7682,17.9724 12.387,18 12,18 C7.58172,18 4,14.4183 4,10 C4,5.58172 7.58172,2 12,2 Z" id="形状" fill="#09244B"></path>
            </g>
        </g>
    </g>
</svg>

<svg xmlns="http://www.w3.org/2000/svg" width="24" height="24"><g fill="none" fill-rule="nonzero"><path d="M24 0v24H0V0h24ZM12.594 23.258l-.012.002-.071.035-.02.004-.014-.004-.071-.036c-.01-.003-.019 0-.024.006l-.004.01-.017.428.005.02.01.013.104.074.015.004.012-.004.104-.074.012-.016.004-.017-.017-.427c-.002-.01-.009-.017-.016-.018Zm.264-.113-.014.002-.184.093-.01.01-.003.011.018.43.005.012.008.008.201.092c.012.004.023 0 .029-.008l.004-.014-.034-.614c-.003-.012-.01-.02-.02-.022Zm-.715.002a.023.023 0 0 0-.027.006l-.006.014-.034.614c0 .012.007.02.017.024l.015-.002.201-.093.01-.008.003-.011.018-.43-.003-.012-.01-.01-.184-.092Z"/><path fill="#09244B" d="M12 8a2 2 0 0 1 1.942 2.479C16.768 13.51 18 17.268 18 21a1 1 0 1 1-2 0c0-3.242-1.049-6.461-3.447-9.077A2.001 2.001 0 1 1 12 8Zm0-6a7.985 7.985 0 0 1 6.122 2.85A7.972 7.972 0 0 1 20 10a7.973 7.973 0 0 1-.77 3.43 1 1 0 0 1-1.807-.86c.37-.777.577-1.648.577-2.57a5.972 5.972 0 0 0-1.408-3.862 6 6 0 1 0-3.734 9.8 1 1 0 0 1 .284 1.981A8 8 0 1 1 12 2Z"/></g></svg>
